images/gen-slider/4.svg

<svg width="265" height="49" viewBox="0 0 265 49" fill="none" xmlns="http://www.w3.org/2000/svg">
<path fill-rule="evenodd" clip-rule="evenodd" d="M103.855 0.0994043C102.685 0.21225 100.879 0.476399 100.275 0.623099L99.6346 0.778707V19.4699V38.1609H101.819H104.003L104.042 30.4416L104.081 22.7223L105.965 22.6613C109.474 22.5479 111.942 21.5893 114.03 19.5288C115.86 17.7224 116.73 16.0402 117.196 13.4103C117.964 9.07125 116.893 5.05676 114.34 2.70421C112.082 0.623247 108.264 -0.325253 103.855 0.0994043ZM0.101596 0.247439C0.0456738 0.302526 0 8.85551 0 19.2543V38.1609H2.261H4.522V21.0855V4.01011H9.72229H14.9226V21.0855V38.1609H17.1842H19.4458L19.4075 19.1923L19.3692 0.223831L9.7862 0.185671C4.51551 0.164587 0.157518 0.192501 0.101596 0.247439ZM108.829 3.96942C110.388 4.46832 111.528 5.49359 112.204 7.00454C112.727 8.17309 112.899 9.17385 112.899 11.0465C112.899 16.1537 110.348 19.022 105.795 19.0326C104.988 19.0345 104.254 18.992 104.166 18.9384C103.927 18.7925 103.943 4.06579 104.183 3.91968C104.783 3.55457 107.629 3.58515 108.829 3.96942ZM31.2018 10.4937C29.7139 10.7246 28.3859 11.0995 27.3088 11.5931C26.1724 12.1136 26.0631 12.1999 26.1533 12.5064C26.5497 13.8552 27.0583 15.2908 27.1259 15.2524C28.5939 14.4185 30.1591 13.9625 31.5611 13.9601C33.0262 13.9576 33.7172 14.2013 34.5437 15.0118C35.4443 15.8953 35.8312 17.0566 35.9688 19.2889L36.0676 20.8895L34.6522 20.9826C29.3203 21.333 25.3988 24.2413 24.4759 28.5296C24.1452 30.0659 24.2591 32.5457 24.7227 33.8982C25.4178 35.9269 26.8486 37.4936 28.6393 38.1871C29.7391 38.613 31.6939 38.6467 32.8243 38.2591C33.8553 37.9056 35.2283 36.8728 35.7991 36.0209C36.0478 35.6499 36.2968 35.3448 36.3523 35.343C36.4079 35.3412 36.4969 35.7908 36.5499 36.342C36.6031 36.8931 36.6817 37.528 36.7246 37.7525L36.8029 38.1609H38.7146H40.6262L40.5864 32.9269C40.477 18.5512 40.4524 17.678 40.1222 16.4083C39.6056 14.4221 38.761 12.9392 37.6079 11.9934C36.1692 10.8134 33.368 10.1577 31.2018 10.4937ZM55.1882 10.5458C53.6143 10.872 52.1198 11.9773 51.0761 13.5872L50.4985 14.4781L50.4971 13.7952C50.4962 13.4195 50.4516 12.5992 50.3978 11.9721L50.3 10.8319L48.3252 10.8732L46.3504 10.9145L46.3943 11.4342C46.4183 11.72 46.4753 20.2893 46.5206 30.4769L46.6032 49H48.7741H50.9448L50.984 42.2301L51.0232 35.4601L51.6278 36.328C52.7159 37.89 54.4741 38.7191 56.3665 38.5628C60.3744 38.2318 63.1797 34.7434 64.1522 28.8808C64.5067 26.7441 64.5145 22.1125 64.1674 19.9719C63.372 15.0674 61.4411 11.8768 58.632 10.8254C57.737 10.4904 56.0981 10.3574 55.1882 10.5458ZM127.129 10.6155C123.262 11.444 120.58 15.1793 119.665 21.0112C119.395 22.7336 119.43 27.0841 119.729 28.8128C120.479 33.1484 122.359 36.1368 125.234 37.5592C127.482 38.6715 131.585 38.7417 134.334 37.7151C135.665 37.218 135.61 37.346 135.242 35.6291C135.064 34.7963 134.897 34.0928 134.869 34.066C134.842 34.0392 134.37 34.1778 133.822 34.3741C131.598 35.1693 129.118 35.1721 127.534 34.3814C126.06 33.6457 124.851 31.8927 124.303 29.6974C124.049 28.6791 123.755 26.4406 123.753 25.5028L123.752 24.946H130.149H136.546L136.656 24.2407C136.836 23.0806 136.475 18.9721 136.047 17.3182C135.039 13.4234 132.959 11.091 130.017 10.5571C128.898 10.354 128.292 10.3662 127.129 10.6155ZM145.382 10.5494C143.646 10.8153 140.863 11.8401 140.559 12.3254C140.48 12.4501 141.105 14.6216 141.336 15.0257C141.368 15.0818 141.816 14.934 142.333 14.6972C145.247 13.3613 148.256 13.5156 149.647 15.0721C150.342 15.8506 150.582 16.562 150.582 17.8441C150.582 20.4959 148.064 22.4218 144.597 22.4218H143.498V23.9607V25.4994L145.118 25.6038C147.598 25.7635 148.9 26.1586 150.077 27.1092C151.547 28.2954 152.018 30.638 151.142 32.3971C149.818 35.053 145.971 35.9841 142.102 34.5848C141.419 34.3377 140.757 34.1021 140.631 34.0611C140.456 34.0041 140.289 34.3284 139.915 35.4503C139.647 36.2554 139.428 36.9516 139.428 36.9975C139.428 37.1746 141.246 37.8722 142.529 38.1877C144.118 38.5782 147.354 38.6495 148.849 38.3272C150.757 37.9157 152.762 36.9239 153.944 35.807C155.603 34.2403 156.428 31.6783 156.009 29.4004C155.512 26.7009 153.686 24.8692 150.582 23.9577C149.961 23.7751 149.563 23.622 149.698 23.6177C149.834 23.6132 150.498 23.3369 151.174 23.0037C154.041 21.5899 155.45 19.0819 154.997 16.1972C154.574 13.5074 152.813 11.6039 149.98 10.7743C148.965 10.4774 146.606 10.3619 145.382 10.5494ZM214.269 10.5693C211.812 11.0309 209.72 12.8213 208.314 15.6659C207.025 18.275 206.507 20.8659 206.505 24.7043C206.504 28.5547 207.137 31.5766 208.421 33.8539C209.198 35.2313 210.99 36.9527 212.271 37.5519C214.185 38.4473 216.598 38.685 219.215 38.2355C220.454 38.0226 222.066 37.5264 222.427 37.2468C222.683 37.0478 222.01 34.0668 221.717 34.108C221.599 34.1247 221.115 34.2748 220.642 34.4417C218.751 35.1084 216.59 35.1581 214.99 34.5718C212.584 33.6896 211.081 30.6808 210.832 26.2468L210.759 24.9491L217.186 24.9105L223.613 24.8718L223.661 23.2385C223.913 14.6647 220.069 9.47972 214.269 10.5693ZM258.749 10.7714C254.584 11.8041 251.568 15.6096 250.575 21.0855C250.23 22.9881 250.237 26.7251 250.591 28.7238C251.543 34.1122 254.165 37.3378 258.336 38.2517C259.932 38.6015 262.269 38.4788 263.761 37.9666C264.37 37.7574 264.898 37.5576 264.933 37.5225C265.018 37.4389 264.52 34.4059 264.399 34.268C264.348 34.2095 263.866 34.2974 263.328 34.4634C261.994 34.8755 260.364 34.8702 259.224 34.45C256.571 33.4725 254.973 30.2933 254.783 25.6142C254.562 20.1771 256.18 16.0166 259.035 14.6792C260.17 14.1472 261.734 14.0973 263.198 14.5464C263.72 14.7063 264.184 14.8013 264.229 14.7572C264.274 14.7132 264.491 13.9308 264.711 13.0186C265.004 11.8035 265.064 11.33 264.937 11.248C263.999 10.6446 260.383 10.3662 258.749 10.7714ZM69.4378 10.9393C69.3825 10.9936 69.3373 17.1408 69.3373 24.5996V38.1609H71.5229H73.7085V31.9989V25.8369H74.0576C74.2496 25.8369 74.8066 25.9096 75.2951 25.9986C78.0242 26.4956 79.3345 28.2197 80.7012 33.1125C81.2975 35.2471 81.8632 37.0245 82.2253 37.901C82.3208 38.1322 82.5816 38.1609 84.5936 38.1609C86.6874 38.1609 86.8466 38.1417 86.7469 37.901C86.3562 36.9576 85.6455 34.7431 85.0091 32.486C84.0696 29.1544 83.522 27.7596 82.6175 26.3947C81.5528 24.7883 80.4415 23.9288 78.6527 23.3287L77.941 23.09L82.1554 17.0916C84.4736 13.7925 86.3701 11.0363 86.3701 10.9668C86.3701 10.8971 85.2896 10.8403 83.9692 10.8403H81.5682L77.9272 16.7795C75.165 21.285 74.2163 22.7188 73.9973 22.7188C73.7176 22.7188 73.7085 22.533 73.7085 16.7795V10.8403H71.6234C70.4765 10.8403 69.493 10.8848 69.4378 10.9393ZM160.983 24.5006V38.1609H163.25H165.518L165.977 37.1586C168.268 32.1597 171.888 23.2226 173.209 19.3058C173.813 17.5133 174.32 16.0613 174.335 16.0791C174.35 16.0968 174.302 16.9466 174.229 17.9674C174.157 18.9882 174.053 23.9492 174 28.9921L173.902 38.1609H175.959H178.016V24.5006V10.8403H175.76C173.766 10.8403 173.488 10.8703 173.365 11.1001C173.19 11.4269 166.021 29.7338 165.343 31.5858C165.068 32.3386 164.819 32.9318 164.791 32.9039C164.763 32.8761 164.81 30.9239 164.896 28.5655C164.981 26.2074 165.052 21.2543 165.052 17.559L165.053 10.8403H163.018H160.983V24.5006ZM187.137 11.0259C187.102 11.128 187.045 13.9509 187.011 17.2992C186.942 23.9008 186.835 25.0781 186.015 28.265C185.506 30.2426 184.876 31.873 183.999 33.4837L183.352 34.6715L182.404 34.7161L181.457 34.7606L181.564 39.9872C181.623 42.8618 181.701 45.2638 181.737 45.3251C181.773 45.3864 182.534 45.4364 183.429 45.4364H185.057L185.153 44.4342C185.206 43.883 185.249 42.958 185.25 42.3786C185.251 41.7992 185.295 40.6132 185.349 39.7431L185.448 38.1609H192.502H199.557L199.633 38.6434C199.674 38.9089 199.752 40.4957 199.805 42.1699C199.858 43.844 199.933 45.2638 199.971 45.3251C200.062 45.471 203.149 45.4701 203.241 45.3242C203.28 45.2624 203.361 42.857 203.422 39.9789L203.533 34.7458H202.381H201.229V22.793V10.8403H194.215C188.738 10.8403 187.187 10.8809 187.137 11.0259ZM228.361 24.5006V38.1687L230.584 38.1277L232.807 38.0866L232.847 32.1102L232.886 26.1339H236.879H240.872V32.1474V38.1609H243.133H245.394V24.4965V10.8324L243.17 10.8734L240.947 10.9145L240.907 16.6682L240.868 22.4218H236.877H232.886L232.847 16.6682L232.807 10.9145L230.584 10.8734L228.361 10.8324V24.5006ZM129.706 14.2607C131.233 15.1752 132.132 17.2202 132.3 20.1575L132.387 21.6794H128.145H123.903L123.906 20.9741C123.914 19.2023 124.863 16.3895 125.877 15.1274C126.868 13.8951 128.485 13.5291 129.706 14.2607ZM216.591 14.1746C218.151 14.9691 219.117 17.1385 219.388 20.4544L219.488 21.6794H215.163H210.837L210.942 20.6298C211.351 16.5381 213.39 13.5886 215.602 13.8881C215.921 13.9315 216.367 14.0604 216.591 14.1746ZM56.6214 14.5624C58.4285 15.4242 59.5101 18.0282 59.8696 22.3835C60.0767 24.8933 59.8726 28.2646 59.3943 30.234C58.647 33.3117 57.2414 34.8877 55.2437 34.8877C53.4126 34.8877 52.0566 33.5085 51.2981 30.8747C51.0548 30.0299 51.0232 29.2975 51.0232 24.5006C51.0232 18.6819 51.0637 18.3154 51.8842 16.7097C52.9743 14.5766 54.8595 13.7221 56.6214 14.5624ZM196.858 24.5006V34.5973H192.336C189.848 34.5973 187.814 34.5617 187.814 34.5182C187.814 34.4745 187.982 34.111 188.188 33.7103C188.849 32.4256 189.481 30.7218 189.925 29.0263C190.694 26.0854 190.854 24.5485 190.936 19.2666L191.012 14.4038H193.935H196.858V24.5006ZM36.1729 26.9134C36.1696 30.1795 36.0142 31.5231 35.5161 32.595C34.0413 35.7681 30.4312 36.0364 29.0719 33.0742C28.7549 32.3836 28.7147 32.0782 28.7147 30.3656C28.7147 28.552 28.7409 28.3793 29.1488 27.5097C29.8319 26.0525 31.1912 24.949 32.8607 24.4962C33.5832 24.3004 34.8818 24.1065 35.6861 24.0746L36.176 24.0551L36.1729 26.9134Z" fill="#FCFCFC"/>
</svg>

<svg width="265" height="49" fill="none" xmlns="http://www.w3.org/2000/svg"><path fill-rule="evenodd" clip-rule="evenodd" d="M103.855.1c-1.17.112-2.976.376-3.58.523l-.64.156V38.16h4.368l.039-7.72.039-7.719 1.884-.06c3.509-.114 5.977-1.073 8.065-3.133 1.83-1.807 2.7-3.489 3.166-6.119.768-4.339-.303-8.353-2.856-10.706-2.258-2.08-6.076-3.03-10.485-2.605zM.102.246C.046.303 0 8.856 0 19.254v18.907h4.522V4.01h10.4v34.151h4.524l-.039-18.969L19.37.224 9.786.186C4.516.165.158.193.102.247zM108.829 3.97c1.559.5 2.699 1.525 3.375 3.036.523 1.168.695 2.169.695 4.042 0 5.107-2.551 7.975-7.104 7.986-.807.002-1.541-.041-1.629-.095-.239-.145-.223-14.872.017-15.018.6-.365 3.446-.335 4.646.05zm-77.627 6.525c-1.488.23-2.816.606-3.893 1.1-1.137.52-1.246.606-1.156.912.397 1.35.905 2.785.973 2.746 1.468-.834 3.033-1.29 4.435-1.292 1.465-.002 2.156.241 2.983 1.052.9.883 1.287 2.045 1.425 4.277l.099 1.6-1.416.094c-5.332.35-9.253 3.258-10.176 7.547-.33 1.536-.217 4.016.247 5.368.695 2.029 2.126 3.596 3.916 4.29 1.1.425 3.055.459 4.185.071 1.031-.353 2.404-1.386 2.975-2.238.249-.371.498-.676.553-.678.056-.002.145.448.198.999.053.551.132 1.186.175 1.41l.078.409h3.823l-.04-5.234c-.109-14.376-.134-15.249-.464-16.519-.516-1.986-1.361-3.469-2.514-4.415-1.439-1.18-4.24-1.835-6.406-1.5zm23.986.052c-1.574.326-3.068 1.431-4.112 3.041l-.578.891v-.683a28.798 28.798 0 00-.1-1.823l-.098-1.14-1.975.041-1.975.042.044.52c.024.285.081 8.854.127 19.042L46.603 49h4.341l.04-6.77.04-6.77.604.868a5.179 5.179 0 004.739 2.235c4.007-.331 6.813-3.82 7.785-9.682.355-2.137.362-6.768.015-8.91-.795-4.904-2.726-8.094-5.535-9.146-.895-.335-2.534-.468-3.444-.28zm71.941.07c-3.867.828-6.549 4.563-7.464 10.395-.27 1.723-.235 6.073.064 7.802.75 4.335 2.63 7.324 5.505 8.746 2.248 1.113 6.351 1.183 9.1.156 1.331-.497 1.276-.369.908-2.086-.178-.833-.345-1.536-.373-1.563-.027-.027-.499.112-1.047.308-2.224.795-4.704.798-6.288.007-1.474-.735-2.683-2.488-3.231-4.684-.254-1.018-.548-3.256-.55-4.194l-.001-.557h12.794l.11-.705c.18-1.16-.181-5.269-.609-6.923-1.008-3.895-3.088-6.227-6.03-6.76-1.119-.204-1.725-.192-2.888.058zm18.253-.067c-1.736.266-4.519 1.291-4.823 1.776-.079.125.546 2.297.777 2.7.032.057.48-.091.997-.328 2.914-1.336 5.923-1.181 7.314.375.695.779.935 1.49.935 2.772 0 2.652-2.518 4.578-5.985 4.578h-1.099V25.5l1.62.105c2.48.16 3.782.555 4.959 1.505 1.47 1.186 1.941 3.529 1.065 5.288-1.324 2.656-5.171 3.587-9.04 2.188a104.5 104.5 0 00-1.471-.524c-.175-.057-.342.267-.716 1.39-.268.804-.487 1.5-.487 1.547 0 .177 1.818.874 3.101 1.19 1.589.39 4.825.462 6.32.14 1.908-.412 3.913-1.404 5.095-2.521 1.659-1.567 2.484-4.129 2.065-6.407-.497-2.7-2.323-4.53-5.427-5.442-.621-.183-1.019-.336-.884-.34.136-.005.8-.281 1.476-.614 2.867-1.414 4.276-3.922 3.823-6.807-.423-2.69-2.184-4.593-5.017-5.423-1.015-.297-3.374-.412-4.598-.225zm68.887.02c-2.457.462-4.549 2.252-5.955 5.097-1.289 2.609-1.807 5.2-1.809 9.038-.001 3.85.632 6.873 1.916 9.15.777 1.377 2.569 3.099 3.85 3.698 1.914.895 4.327 1.133 6.944.684 1.239-.213 2.851-.71 3.212-.99.256-.198-.417-3.18-.71-3.138-.118.017-.602.167-1.075.334-1.891.666-4.052.716-5.652.13-2.406-.882-3.909-3.891-4.158-8.325l-.073-1.298 6.427-.039 6.427-.038.048-1.634c.252-8.573-3.592-13.758-9.392-12.669zm44.48.202c-4.165 1.033-7.181 4.839-8.174 10.314-.345 1.903-.338 5.64.016 7.639.952 5.388 3.574 8.614 7.745 9.528 1.596.35 3.933.227 5.425-.285.609-.21 1.137-.41 1.172-.444.085-.084-.413-3.117-.534-3.255-.051-.059-.533.03-1.071.195-1.334.413-2.964.407-4.104-.013-2.653-.978-4.251-4.157-4.441-8.836-.221-5.437 1.397-9.597 4.252-10.935 1.135-.532 2.699-.582 4.163-.133.522.16.986.255 1.031.211.045-.044.262-.826.482-1.738.293-1.216.353-1.689.226-1.771-.938-.603-4.554-.882-6.188-.477zm-189.311.168c-.056.055-.1 6.202-.1 13.66v13.562h4.371V25.837h.349c.192 0 .749.073 1.237.162 2.73.497 4.04 2.22 5.406 7.113.597 2.135 1.162 3.913 1.524 4.789.096.231.357.26 2.369.26 2.093 0 2.253-.02 2.153-.26-.39-.943-1.102-3.158-1.738-5.415-.94-3.332-1.487-4.726-2.391-6.091-1.065-1.607-2.176-2.466-3.965-3.066l-.712-.239 4.214-5.998c2.319-3.3 4.215-6.056 4.215-6.125 0-.07-1.08-.127-2.4-.127h-2.402l-3.64 5.94c-2.763 4.505-3.712 5.939-3.93 5.939-.28 0-.29-.186-.29-5.94V10.84h-2.085c-1.147 0-2.13.045-2.185.1zm91.545 13.562v13.66h4.535l.459-1.002c2.291-5 5.911-13.936 7.232-17.853.604-1.793 1.111-3.245 1.126-3.227.015.018-.033.868-.106 1.888-.072 1.021-.176 5.982-.229 11.025l-.098 9.169h4.114V10.84h-2.256c-1.994 0-2.272.03-2.395.26-.175.326-7.344 18.633-8.022 20.485-.275.753-.524 1.346-.552 1.318-.028-.028.019-1.98.105-4.339.085-2.358.156-7.31.156-11.006l.001-6.719h-4.07V24.5zm26.154-13.475c-.035.102-.092 2.925-.126 6.273-.069 6.602-.176 7.78-.996 10.966-.509 1.978-1.139 3.608-2.016 5.219l-.647 1.188-.948.044-.947.045.107 5.226c.059 2.875.137 5.277.173 5.338.036.061.797.111 1.692.111h1.628l.096-1.002c.053-.551.096-1.476.097-2.055.001-.58.045-1.766.099-2.636l.099-1.582h14.109l.076.482c.041.266.119 1.853.172 3.527.053 1.674.128 3.094.166 3.155.091.146 3.178.145 3.27 0 .039-.063.12-2.468.181-5.346l.111-5.233h-2.304V10.84h-7.014c-5.477 0-7.028.04-7.078.186zM228.361 24.5v13.668l2.223-.041 2.223-.041.04-5.977.039-5.976h7.986V38.16h4.522V10.832l-2.224.041-2.223.042-.04 5.753-.039 5.754h-7.982l-.039-5.754-.04-5.753-2.223-.042-2.223-.04V24.5zm-98.655-10.24c1.527.914 2.426 2.96 2.594 5.896l.087 1.522h-8.484l.003-.705c.008-1.772.957-4.584 1.971-5.847.991-1.232 2.608-1.598 3.829-.866zm86.885-.086c1.56.794 2.526 2.963 2.797 6.28l.1 1.224h-8.651l.105-1.05c.409-4.09 2.448-7.04 4.66-6.74.319.043.765.171.989.286zm-159.97.387c1.807.862 2.89 3.466 3.249 7.822.207 2.51.003 5.88-.476 7.85-.747 3.078-2.153 4.654-4.15 4.654-1.831 0-3.187-1.38-3.946-4.013-.243-.845-.275-1.578-.275-6.374 0-5.82.04-6.186.861-7.791 1.09-2.133 2.975-2.988 4.737-2.148zM196.858 24.5v10.096h-4.522c-2.488 0-4.522-.035-4.522-.079s.168-.407.374-.808c.661-1.284 1.293-2.988 1.737-4.684.769-2.94.929-4.477 1.011-9.76l.076-4.862h5.846V24.5zM36.173 26.913c-.003 3.267-.159 4.61-.657 5.682-1.475 3.173-5.085 3.441-6.444.48-.317-.691-.357-.997-.357-2.71 0-1.813.026-1.986.434-2.855.683-1.458 2.042-2.561 3.712-3.014.722-.196 2.02-.39 2.825-.421l.49-.02-.003 2.858z" fill="#FCFCFC"/></svg>
